core/img/actions/close.svg

<svg width="16" height="16" version="1.1" viewbox="0 0 16 16" xmlns="http://www.w3.org/2000/svg"><path d="m14 12.3-1.7 1.7-4.3-4.3-4.3 4.3-1.7-1.7 4.3-4.3-4.3-4.3 1.7-1.7 4.3 4.3 4.3-4.3 1.7 1.7-4.3 4.3z"/></svg>

<svg xmlns="http://www.w3.org/2000/svg" width="16" height="16"><path d="M14 12.3 12.3 14 8 9.7 3.7 14 2 12.3 6.3 8 2 3.7 3.7 2 8 6.3 12.3 2 14 3.7 9.7 8z"/></svg>
